src/assets/amazingUIUX.svg

<svg xmlns="http://www.w3.org/2000/svg" width="70" height="65" fill="none" viewBox="0 0 70 65"><path fill="#181818" d="M34.8368 48.1735C24.8011 48.1735 14.7714 48.1735 4.73569 48.1735C1.78471 48.1735 0.203613 46.591 0.203613 43.62C0.203613 30.6569 0.203613 17.6938 0.203613 4.73066C0.203613 1.7415 1.7485 0.183258 4.73569 0.183258C24.8554 0.177195 44.9752 0.177195 65.101 0.183258C68.0821 0.183258 69.633 1.74756 69.633 4.73066C69.633 17.6938 69.633 30.6569 69.633 43.62C69.633 46.5849 68.0459 48.1735 65.101 48.1735C55.0109 48.1735 44.9269 48.1735 34.8368 48.1735ZM34.9093 45.8209C44.939 45.8209 54.9747 45.8209 65.0044 45.8209C66.8148 45.8209 67.3097 45.3298 67.3097 43.5291C67.3097 30.6205 67.3097 17.718 67.3097 4.80948C67.3097 3.05722 66.7846 2.52365 65.0708 2.52365C44.9812 2.52365 24.8916 2.52365 4.80207 2.52365C3.06407 2.52365 2.53905 3.05115 2.53905 4.78522C2.53905 17.718 2.53905 30.6508 2.53905 43.5836C2.53905 45.3056 3.04596 45.8209 4.74172 45.8209C14.7895 45.8209 24.8494 45.8209 34.9093 45.8209Z"/><path fill="#181818" d="M31.4333 49.8408C33.7507 49.8408 36.0318 49.8408 38.3914 49.8408C38.3914 53.6606 38.3914 57.4744 38.3914 61.3427C36.0982 61.3427 33.799 61.3427 31.4333 61.3427C31.4333 57.5108 31.4333 53.697 31.4333 49.8408Z"/><path fill="#181818" d="M40.1475 61.628C40.1475 60.5427 40.1475 59.5665 40.1475 58.4448C44.6916 59.8212 49.1694 61.1793 53.804 62.5799C53.11 63.3924 52.4824 64.1503 51.8307 64.8779C51.7402 64.9809 51.4807 65.0113 51.3358 64.9628C47.6064 63.8653 43.889 62.7497 40.1475 61.628Z"/><path fill="#181818" d="M29.7195 58.4448C29.7195 59.4634 29.7376 60.379 29.7014 61.2945C29.6953 61.4582 29.466 61.6947 29.2971 61.7493C25.7305 62.8346 22.158 63.9017 18.5794 64.9506C18.3984 65.0052 18.0785 64.9446 17.9578 64.8172C17.3242 64.12 16.7328 63.3863 16.0569 62.586C20.6433 61.1975 25.1271 59.8394 29.7195 58.4448Z"/><path fill="#2ECC82" d="M65.6079 4.22119C65.6079 17.5481 65.6079 30.8386 65.6079 44.1595C45.1321 44.1595 24.7046 44.1595 4.22876 44.1595C4.22876 30.8326 4.22876 17.542 4.22876 4.22119C24.7106 4.22119 45.1381 4.22119 65.6079 4.22119ZM7.65044 22.1137C7.62631 22.1137 7.60217 22.1137 7.58406 22.1137C7.65648 23.7507 7.54182 25.4181 7.84355 27.0127C8.35651 29.7351 11.054 31.6147 13.649 31.3237C16.6542 30.9841 18.7845 28.6801 18.8026 25.697C18.8207 23.2111 18.8026 20.7252 18.8086 18.2393C18.8086 17.6451 18.7664 17.063 18 17.0448C17.2094 17.0267 17.1793 17.6148 17.1793 18.2029C17.1853 20.5554 17.1913 22.908 17.1732 25.2665C17.1672 25.8183 17.1189 26.3822 16.962 26.9097C16.4129 28.765 14.6024 29.8928 12.6834 29.632C10.7583 29.3713 9.3462 27.8131 9.31603 25.8426C9.28585 23.2778 9.30396 20.7131 9.30396 18.1484C9.30396 17.5723 9.18326 17.0509 8.4772 17.0448C7.75303 17.0388 7.65648 17.5723 7.65648 18.1423C7.64441 19.4701 7.65044 20.7919 7.65044 22.1137ZM51.8668 22.1682H51.8729C51.8729 20.7373 51.8789 19.3125 51.8729 17.8816C51.8729 17.3905 51.6375 17.0691 51.1245 17.0448C50.5754 17.0206 50.3159 17.348 50.2556 17.8634C50.2374 18.0453 50.2495 18.2332 50.2495 18.4212C50.2495 20.804 50.2555 23.1808 50.2435 25.5636C50.2435 25.9032 50.2314 26.2548 50.159 26.5883C49.7124 28.5285 47.9322 29.8624 46.0494 29.6866C43.9372 29.4865 42.4104 27.8737 42.3802 25.7334C42.344 23.1929 42.3682 20.6525 42.3742 18.118C42.3742 17.5602 42.2777 17.0812 41.6078 17.057C40.8957 17.0388 40.7509 17.5178 40.7569 18.118C40.7629 20.7131 40.7388 23.3021 40.769 25.8971C40.7991 28.862 43.2794 31.3116 46.2425 31.3661C49.2115 31.4146 51.7522 29.0379 51.8608 26.0669C51.903 24.7633 51.8668 23.4658 51.8668 22.1682ZM25.4227 22.5684C25.2537 22.3016 25.1632 22.1743 25.0847 22.0409C24.1976 20.5736 23.3045 19.1124 22.4234 17.6451C22.1338 17.1601 21.7355 16.8387 21.1923 17.1297C20.5949 17.4571 20.6915 17.9725 21.0053 18.4879C22.0372 20.1735 23.0329 21.8833 24.095 23.5507C24.3968 24.0297 24.3666 24.3571 24.0769 24.8179C23.1959 26.1942 22.3691 27.6069 21.5243 29.0015C21.2949 29.3835 20.9691 29.7533 20.8785 30.1656C20.8122 30.4748 20.9449 31.0084 21.1682 31.1539C21.3915 31.2994 21.8682 31.1357 22.1881 30.9963C22.3691 30.9174 22.4596 30.6203 22.5803 30.4203C23.5036 28.8984 24.427 27.3826 25.4106 25.7637C26.4486 27.4614 27.4141 29.056 28.3857 30.6507C28.6814 31.1357 29.0194 31.5723 29.641 31.2024C30.2867 30.8144 30.0815 30.2808 29.7677 29.7715C28.8082 28.1951 27.8848 26.5944 26.8771 25.0543C26.4607 24.4177 26.4426 23.9569 26.871 23.3081C27.915 21.7256 28.8564 20.0765 29.8401 18.4515C30.1358 17.9665 30.2082 17.4571 29.6591 17.1419C29.134 16.8448 28.6995 17.0873 28.428 17.6148C28.3193 17.827 28.1866 18.021 28.0659 18.2272C27.2029 19.6399 26.346 21.0526 25.4227 22.5684ZM57.3101 18.6698C57.3101 22.3987 57.3101 26.0305 57.3101 29.7291C56.5739 29.7291 55.892 29.7412 55.2161 29.7291C54.6669 29.7169 54.2385 29.9291 54.2264 30.5051C54.2143 31.1175 54.6549 31.3722 55.2282 31.3722C57.2015 31.3722 59.1749 31.3722 61.1542 31.3722C61.7215 31.3722 62.1681 31.16 62.156 30.5173C62.1439 29.8564 61.6732 29.7169 61.112 29.7291C60.4361 29.7412 59.7663 29.7291 59.0723 29.7291C59.0723 25.9759 59.0723 22.3441 59.0723 18.6698C59.8145 18.6698 60.5025 18.6759 61.1844 18.6698C61.7577 18.6637 62.1862 18.4273 62.162 17.7906C62.1379 17.1843 61.7094 17.0267 61.1723 17.0267C59.199 17.0327 57.2256 17.0327 55.2463 17.0267C54.6669 17.0267 54.2143 17.2207 54.2324 17.8513C54.2505 18.4636 54.7152 18.6759 55.2825 18.6698C55.9342 18.6637 56.592 18.6698 57.3101 18.6698ZM38.5784 13.5646C38.3913 13.3948 38.162 13.0553 37.8542 12.9522C37.3895 12.7945 37.0456 13.0735 36.9188 13.5585C36.5929 14.753 36.2731 15.9474 35.9533 17.1479C34.4386 22.8231 32.9299 28.5043 31.4091 34.1734C31.2703 34.6948 31.2703 35.1192 31.7953 35.386C32.3505 35.671 32.7911 35.3375 33.0264 34.4765C34.8127 27.7828 36.599 21.089 38.3853 14.4013C38.4396 14.183 38.4818 13.9769 38.5784 13.5646Z"/></svg>

<svg xmlns="http://www.w3.org/2000/svg" width="70" height="65" fill="none"><path fill="#181818" d="M34.837 48.173H4.736c-2.951 0-4.532-1.582-4.532-4.553V4.73C.204 1.742 1.748.184 4.736.184c20.12-.006 40.24-.006 60.365 0 2.981 0 4.532 1.565 4.532 4.548V43.62c0 2.965-1.587 4.553-4.532 4.553H34.837Zm.072-2.352h30.095c1.81 0 2.306-.491 2.306-2.292V4.81c0-1.752-.525-2.285-2.24-2.285H4.803c-1.738 0-2.263.527-2.263 2.261v38.799c0 1.722.507 2.237 2.203 2.237H34.91Zm-3.476 4.019h6.958v11.503h-6.958V49.84Zm8.715 11.788v-3.183c4.544 1.376 9.021 2.734 13.656 4.135-.694.812-1.322 1.57-1.973 2.298-.09.103-.35.133-.495.085-3.73-1.098-7.447-2.213-11.188-3.335ZM29.72 58.445c0 1.018.018 1.934-.019 2.85-.006.163-.235.4-.404.454a1072.595 1072.595 0 0 1-10.718 3.202c-.18.054-.5-.006-.621-.134-.634-.697-1.225-1.43-1.901-2.231 4.586-1.389 9.07-2.747 13.663-4.141Z"/><path fill="#2ECC82" d="M65.608 4.221V44.16H4.228V4.22h61.38ZM7.65 22.114h-.066c.072 1.637-.042 3.304.26 4.899.513 2.722 3.21 4.602 5.805 4.31 3.005-.339 5.136-2.643 5.154-5.626.018-2.486 0-4.972.006-7.458 0-.594-.043-1.176-.809-1.194-.79-.018-.82.57-.82 1.158.005 2.352.011 4.705-.007 7.064-.006.551-.054 1.115-.211 1.643-.55 1.855-2.36 2.983-4.279 2.722-1.925-.26-3.337-1.819-3.367-3.79-.03-2.564-.012-5.129-.012-7.694 0-.576-.12-1.097-.827-1.103-.724-.006-.82.527-.82 1.097-.013 1.328-.007 2.65-.007 3.972Zm44.217.054h.006c0-1.43.006-2.855 0-4.286 0-.492-.235-.813-.748-.837-.55-.024-.81.303-.87.818-.018.182-.006.37-.006.558 0 2.383.006 4.76-.006 7.143 0 .34-.012.69-.084 1.024-.447 1.94-2.227 3.274-4.11 3.099-2.112-.2-3.639-1.813-3.669-3.954-.036-2.54-.012-5.08-.006-7.615 0-.558-.096-1.037-.766-1.061-.712-.018-.857.46-.851 1.061.006 2.595-.018 5.184.012 7.78.03 2.964 2.51 5.414 5.474 5.468 2.968.049 5.51-2.328 5.618-5.3.042-1.303.006-2.6.006-3.898Zm-26.444.4c-.17-.266-.26-.394-.338-.527-.887-1.467-1.78-2.929-2.662-4.396-.29-.485-.688-.806-1.23-.515-.598.327-.502.843-.188 1.358 1.032 1.686 2.028 3.395 3.09 5.063.302.479.272.806-.018 1.267-.881 1.376-1.708 2.789-2.553 4.183-.23.383-.555.752-.646 1.165-.066.309.067.842.29.988.224.145.7-.018 1.02-.158.181-.079.272-.376.392-.576l2.83-4.656c1.039 1.697 2.004 3.292 2.976 4.887.295.485.633.921 1.255.551.646-.388.44-.921.127-1.43-.96-1.577-1.883-3.178-2.89-4.718-.417-.636-.435-1.097-.007-1.746 1.044-1.582 1.985-3.232 2.97-4.857.295-.485.367-.994-.182-1.31-.525-.296-.96-.054-1.231.474-.109.212-.241.406-.362.612-.863 1.413-1.72 2.826-2.643 4.341ZM57.31 18.67v11.06c-.736 0-1.418.011-2.094 0-.55-.013-.977.2-.99.775-.012.613.429.867 1.002.867h5.926c.567 0 1.014-.212 1.002-.855-.012-.66-.483-.8-1.044-.788-.676.012-1.346 0-2.04 0V18.67c.742 0 1.43.007 2.112 0 .574-.005 1.002-.242.978-.878-.024-.607-.453-.764-.99-.764-1.973.006-3.946.006-5.926 0-.58 0-1.032.194-1.014.824.019.613.483.825 1.05.819.652-.006 1.31 0 2.028 0Zm-18.732-5.105c-.187-.17-.416-.51-.724-.613-.465-.158-.808.121-.935.607a618.237 618.237 0 0 0-.966 3.589c-1.514 5.675-3.023 11.356-4.544 17.025-.139.522-.139.946.386 1.213.555.285.996-.049 1.231-.91 1.787-6.693 3.573-13.387 5.36-20.075.054-.218.096-.424.192-.836Z"/></svg>
